dist/svgs/unicons/solid/grid.svg

<svg xmlns="http://www.w3.org/2000/svg" viewBox="0 0 24 24"><path d="M21 2H3c-.6 0-1 .4-1 1v4h20V3c0-.6-.4-1-1-1zM2 15h9V9H2v6zm0 6c0 .6.4 1 1 1h8v-5H2v4zm11-6h9V9h-9v6zm0 7h8c.6 0 1-.4 1-1v-4h-9v5z"/></svg>

<svg xmlns="http://www.w3.org/2000/svg" enable-background="new 0 0 24 24" viewBox="0 0 24 24"><path d="M21,2H3C2.4,2,2,2.4,2,3v4h20V3C22,2.4,21.6,2,21,2z M2,15h9V9H2V15z M2,21c0,0.6,0.4,1,1,1h8v-5H2V21z M13,15h9V9h-9V15z M13,22h8c0.6,0,1-0.4,1-1v-4h-9V22z"/></svg>
